X: 181104
T: Rain a Sup
S: "Johnny O'Leary of Sliabh Luachra" (#47)
Z: B.Black
L: 1/8
M: 12/8
Q: 320
R: slide
K: G
c|: d2B BAB c2B A2B|c2c cBc e2d B2c|
d2B BAB c/d/cB A2B|1 ceB ddB G3 G2e :|2\
ceB ddB G3 GBd||
g3-gfg aag fed|e3 ede ffe defg|
g3 gfg a/b/ag fed|efg a2g fef g2d|
g3-gfg aag fed|e2e ede faa def|
g3-gfg|a/b/ag fed|efg a2g fef g2e ||
